X:0914
T:Death of Admiral Benbow
C:as sung by Incledon.
M:3/4
L:1/8
Q:1/4=100 "Moderato"
I: ||
Z:Jack Campin * www.campin.me.uk * 2009
K:G
G>D| G>A  B2  d2 |(d>c)B2 (GA)| B2     (cB) (AG)| G4
G>D| G>A  B2  d2 |(dc) B2  AG | B2     (cB) (AG)| G4
FG | A2   E2 (AG)| F2  D2  GD | G2      GA   BG |Hc4{B d Hc}
GD |(G>A) B>c d>e| d>c B2 (GA)|(Bc/d/) (cB) (AG)| G4|]
<end>
<start>
